X:1
T: Everybody's Hornpipe
C:
R:Reel
Q: 232
K:C
M:4/4
L:1/8
f|:ec c2 Gc Ec|Gc eg fe dc|((3Bcd) gf ((3efg) c'g|af dg fe dc|
ec c2 Gc eg|af dB GB de|fa gf ec dB|1c2 e2 ca gf:|2c2 e2 c2|
|:GF|EG cG ec GE|DD _BF dB FD|Ed cB AG FE|DG, B,D GF ED|
EG cG ec GE|DF _BF db FD|Ea gf ec dB|c2 e2 c2:|
